src/components/icon/facebook-video.svg

<svg xmlns="http://www.w3.org/2000/svg" width="16" height="16" viewBox="0 0 40 40">
<path d="M37,12 C38.6568542,12 40,13.3431458 40,15 L40,37 C40,38.6568542 38.6568542,40 37,40 L11,40 C9.34314575,40 8,38.6568542 8,37 L8,21.0452881 C8,20.4477153 8.44771525,20 9,20 C9.55228475,20 10,20.4477153 10,21 C10,21.0101182 10,26.3434516 10,37 C10,37.5522847 10.4477153,38 11,38 L37,38 C37.5522847,38 38,37.5522847 38,37 L38,15 C38,14.4477153 37.5522847,14 37,14 L21,14 C20.4477153,14 20,13.5522847 20,13 C20,12.4477153 20.4477153,12 21,12 L37,12 Z M20,31.332326 L20,20.6674739 C20,20.1642792 20.5364624,19.8425412 20.9806501,20.0793387 L29.8718774,24.8192729 C30.3168111,25.0564681 30.347535,25.682423 29.9279668,25.962014 L21.0367395,31.8869318 C20.5935864,32.1822392 20,31.864699 20,31.332326 Z M17,15 C17,16.1045695 16.1045695,17 15,17 L11.7297539,17 L11.7297539,10.4166632 L13.9394762,10.4166632 L14.2703507,7.85102004 L11.7297539,7.85102004 L11.7297539,6.21301869 C11.7297539,5.47020581 11.936023,4.96400354 13.0012069,4.96400354 L14.3597976,4.9634096 L14.3597976,2.66867806 C14.1248346,2.63741117 13.318361,2.56755604 12.3800913,2.56755604 C10.4212954,2.56755604 9.08025073,3.76320713 9.08025073,5.95892819 L9.08025073,7.85102004 L6.86485571,7.85102004 L6.86485571,10.4166632 L9.08025073,10.4166632 L9.08025073,17 L2,17 C0.8954305,17 5.55111512e-17,16.1045695 0,15 L0,2 C0,0.8954305 0.8954305,0 2,0 L15,0 C16.1045695,0 17,0.8954305 17,2 L17,15 Z"/>
</svg>

<svg xmlns="http://www.w3.org/2000/svg" width="16" height="16" viewBox="0 0 40 40"><path d="M37 12a3 3 0 0 1 3 3v22a3 3 0 0 1-3 3H11a3 3 0 0 1-3-3V21.045C8 20.448 8.448 20 9 20a1 1 0 0 1 1 1v16a1 1 0 0 0 1 1h26a1 1 0 0 0 1-1V15a1 1 0 0 0-1-1H21a1 1 0 0 1 0-2h16zM20 31.332V20.667c0-.503.536-.824.98-.588l8.892 4.74a.666.666 0 0 1 .056 1.143l-8.891 5.925A.667.667 0 0 1 20 31.332zM17 15a2 2 0 0 1-2 2h-3.27v-6.583h2.21l.33-2.566h-2.54V6.213c0-.743.206-1.249 1.271-1.249h1.359V2.668a18.162 18.162 0 0 0-1.98-.101c-1.959 0-3.3 1.195-3.3 3.39v1.893H6.865v2.566H9.08V17H2a2 2 0 0 1-2-2V2a2 2 0 0 1 2-2h13a2 2 0 0 1 2 2v13z"/></svg>
